X: 2820
T: Bar's Bruno
R: polka
M: 2/4
K: Bminor
(3A/B/c/|dB fB|g>f ed|cA aA|BA cA|
dB fB|g/a/g/f/ ed|ce ac|B2 B(3A/B/c/|
dB fB|g>f ed|ca aB|aa ca|
dB fB|g/a/g/f/ ed|ce ac|B2 Bd/c/||
BF cF|AB GF|Ee dB|cd Bd/c/|
BF cF|AB GF|Ec c2|A/G/F F2|
BF cF|AB GF|Ee dB|cd eg|
fb bf|g/a/g/f/ ed|ca- ac|B2 B(3A/B/c/||

